www/assets/icons/imagesearch_roller.svg

<svg width="24" height="24" viewBox="0 0 24 24" xmlns="http://www.w3.org/2000/svg" fill='currentColor'><path d="M21 1.5V7.5H7V5.5H5V9.5H15V14.5H17V22.5H11V14.5H13V11.5H3V3.5H7V1.5"/></svg>

<svg xmlns="http://www.w3.org/2000/svg" width="24" height="24" viewBox="0 0 24 24" fill='currentColor'><path d="M21 1.5v6H7v-2H5v4h10v5h2v8h-6v-8h2v-3H3v-8h4v-2"/></svg>
